X: 190911
T: Scenic Road [The]
S: "First Collection of Traditional Irish Music" (M.Mulvihill)
Z: B.Black
L: 1/8
M: 6/8
R: jig
K: D
z|FEF AFA|Bcd efg|fed B/c/dB|AFE EDE|
F2 A AFA|Bcd efg|fed B/c/dB|AFD D2 :|
e|fed B/c/dB|AFE E2 B|AFB AFB|ABA AFA|
fed BdB|AFE E2e|fed BdB|AFD D2 :|
